src/assets/outline/BoxTime.svg

<svg width="24" height="24" viewBox="0 0 24 24"  xmlns="http://www.w3.org/2000/svg">
<path d="M11.9998 13.2999C11.8698 13.2999 11.7398 13.2699 11.6198 13.1999L2.78985 8.0899C2.42985 7.8799 2.30983 7.41987 2.51983 7.05987C2.72983 6.69987 3.17983 6.57985 3.54983 6.78985L11.9998 11.6799L20.3998 6.81988C20.7598 6.60988 21.2198 6.7399 21.4298 7.0899C21.6398 7.4499 21.5098 7.90987 21.1598 8.11987L12.3899 13.1999C12.2599 13.2599 12.1298 13.2999 11.9998 13.2999Z" />
<path d="M12 22.36C11.59 22.36 11.25 22.02 11.25 21.61V12.54C11.25 12.13 11.59 11.79 12 11.79C12.41 11.79 12.75 12.13 12.75 12.54V21.61C12.75 22.02 12.41 22.36 12 22.36Z" />
<path d="M11.9999 22.7502C11.1199 22.7502 10.2399 22.5602 9.55988 22.1702L4.21988 19.2103C2.76988 18.4103 1.62988 16.4802 1.62988 14.8202V9.16021C1.62988 7.50021 2.76988 5.58026 4.21988 4.77026L9.55988 1.81023C10.9199 1.05023 13.0599 1.05023 14.4299 1.81023L19.7699 4.77026C21.2199 5.57026 22.3599 7.50021 22.3599 9.16021V14.8202C22.3599 14.8902 22.3599 14.9902 22.3299 15.1202C22.2699 15.3802 22.0799 15.5902 21.8299 15.6702C21.5799 15.7502 21.2999 15.7003 21.0999 15.5203C19.9599 14.5203 18.1799 14.4802 16.9599 15.4502C16.1899 16.0602 15.7399 16.9902 15.7399 17.9802C15.7399 18.5702 15.8999 19.1503 16.2099 19.6503C16.2899 19.7903 16.3699 19.9002 16.4599 20.0002C16.6099 20.1702 16.6699 20.4002 16.6299 20.6202C16.5899 20.8402 16.4499 21.0403 16.2499 21.1403L14.4199 22.1503C13.7499 22.5603 12.8799 22.7502 11.9999 22.7502ZM11.9999 2.75024C11.3799 2.75024 10.7499 2.88024 10.2999 3.13024L4.95987 6.09026C3.98987 6.63026 3.14987 8.06021 3.14987 9.16021V14.8202C3.14987 15.9202 3.99987 17.3603 4.95987 17.8903L10.2999 20.8502C11.2099 21.3602 12.7999 21.3602 13.7099 20.8502L14.8299 20.2302C14.4599 19.5602 14.2599 18.7802 14.2599 17.9802C14.2599 16.5202 14.9099 15.1703 16.0399 14.2703C17.4099 13.1803 19.3499 12.9502 20.8699 13.6102V9.15026C20.8699 8.05026 20.0199 6.61025 19.0599 6.08025L13.7199 3.12023C13.2499 2.88023 12.6199 2.75024 11.9999 2.75024Z" />
<path d="M19 22.75C16.38 22.75 14.25 20.62 14.25 18C14.25 16.54 14.9 15.19 16.03 14.29C16.87 13.62 17.93 13.25 19 13.25C21.62 13.25 23.75 15.38 23.75 18C23.75 19.36 23.16 20.66 22.13 21.56C21.26 22.33 20.15 22.75 19 22.75ZM19 14.75C18.26 14.75 17.56 15 16.97 15.47C16.2 16.08 15.75 17.01 15.75 18C15.75 19.79 17.21 21.25 19 21.25C19.78 21.25 20.54 20.96 21.15 20.44C21.85 19.82 22.25 18.94 22.25 18C22.25 16.21 20.79 14.75 19 14.75Z" />
<path d="M17.9999 19.75C17.7499 19.75 17.4999 19.62 17.3599 19.39C17.1499 19.03 17.2599 18.57 17.6199 18.36L18.5099 17.83V16.75C18.5099 16.34 18.8499 16 19.2599 16C19.6699 16 20.0099 16.34 20.0099 16.75V18.25C20.0099 18.51 19.8699 18.76 19.6499 18.89L18.3999 19.64C18.2599 19.72 18.1299 19.75 17.9999 19.75Z" />
</svg>

<?xml version="1.0" encoding="UTF-8"?>
<svg width="24" height="24" viewBox="0 0 24 24" xmlns="http://www.w3.org/2000/svg">
 <path d="m12 13.3c-0.13 0-0.26-0.03-0.38-0.1l-8.83-5.11c-0.36-0.21-0.48002-0.67003-0.27002-1.03s0.66-0.48002 1.03-0.27002l8.45 4.89 8.4-4.86c0.36-0.21 0.82-0.07998 1.03 0.27002 0.21 0.36 0.08 0.81997-0.27 1.03l-8.7699 5.08c-0.13 0.06-0.2601 0.1-0.3901 0.1z"/>
 <path d="m12 22.36c-0.41 0-0.75-0.34-0.75-0.75v-9.07c0-0.41 0.34-0.75 0.75-0.75s0.75 0.34 0.75 0.75v9.07c0 0.41-0.34 0.75-0.75 0.75z"/>
 <path d="m12 22.75c-0.88 0-1.76-0.19-2.44-0.58l-5.34-2.9599c-1.45-0.8-2.59-2.7301-2.59-4.3901v-5.66c0-1.66 1.14-3.58 2.59-4.39l5.34-2.96c1.36-0.76 3.5-0.76 4.87 0l5.34 2.96c1.45 0.8 2.59 2.73 2.59 4.39v5.66c0 0.07 0 0.17-0.03 0.3-0.06 0.26-0.25 0.47-0.5 0.55s-0.53 0.0301-0.73-0.1499c-1.14-1-2.92-1.0401-4.14-0.0701-0.77 0.61-1.22 1.54-1.22 2.53 0 0.59 0.16 1.1701 0.47 1.6701 0.08 0.14 0.16 0.2499 0.25 0.3499 0.15 0.17 0.21 0.4 0.17 0.62s-0.18 0.4201-0.38 0.5201l-1.83 1.01c-0.67 0.41-1.54 0.5999-2.42 0.5999zm0-20c-0.62 0-1.25 0.13-1.7 0.38l-5.34 2.96c-0.97 0.54-1.81 1.97-1.81 3.07v5.66c0 1.1 0.85 2.5401 1.81 3.0701l5.34 2.9599c0.91 0.51 2.5 0.51 3.41 0l1.12-0.62c-0.37-0.67-0.57-1.45-0.57-2.25 0-1.46 0.65-2.8099 1.78-3.7099 1.37-1.09 3.31-1.3201 4.83-0.6601v-4.4599c0-1.1-0.85-2.54-1.81-3.07l-5.34-2.96c-0.47-0.24-1.1-0.36999-1.72-0.36999z"/>
 <path d="m19 22.75c-2.62 0-4.75-2.13-4.75-4.75 0-1.46 0.65-2.81 1.78-3.71 0.84-0.67 1.9-1.04 2.97-1.04 2.62 0 4.75 2.13 4.75 4.75 0 1.36-0.59 2.66-1.62 3.56-0.87 0.77-1.98 1.19-3.13 1.19zm0-8c-0.74 0-1.44 0.25-2.03 0.72-0.77 0.61-1.22 1.54-1.22 2.53 0 1.79 1.46 3.25 3.25 3.25 0.78 0 1.54-0.29 2.15-0.81 0.7-0.62 1.1-1.5 1.1-2.44 0-1.79-1.46-3.25-3.25-3.25z"/>
 <path d="m18 19.75c-0.25 0-0.5-0.13-0.64-0.36-0.21-0.36-0.1-0.82 0.26-1.03l0.89-0.53v-1.08c0-0.41 0.34-0.75 0.75-0.75s0.75 0.34 0.75 0.75v1.5c0 0.26-0.14 0.51-0.36 0.64l-1.25 0.75c-0.14 0.08-0.27 0.11-0.4 0.11z"/>
</svg>
